T: Humours Of Ballymanus, The
M: 9/8
L: 1/8
K: Dmaj
|: ABA A2 F A2 F | ABA A2 F Bcd | ABA AFA AF/G/A | B^AB B2 =A Bcd :||: d2 d fed cBA | d2 d fed f2 a | d2 d fed cBA | B^AB B2 =A BB/c/d :||: FAd dAF dAF | FAd d2 F BB/c/d | FAd dAF dA/G/F | B^AB B2 =A B2 c |||: dfa afd cBA | df/g/a afd c2 a | dfa afd ecA | B^AB B2 =A BB/c/d :|~ | BcB B2 A Bcd :| ~ or ~ | B^AB B2 =A Bcd :|~ | d2 a afd g2 e | ~ or ~ | dfa a2 f gfe | ~
